X: 6
T:Money in both pockets
M: 6/8
R: Jig
Z: Frederick W. Faller
Q:450
D: The Heart of Cape Bretton, Smithsonian Folkways, Hinnon Beaton, Fiddle
K:D
d2A FEF | DED Dfe | d2A FEF | DFA B2 A :|  d2 f afa | gfb afd | f>ff afd
 | ece gfe | d2 f afa | gfb afd | fdB AFA | EFA B2 A |
